X:1
T:Rêverie
T:Rêverie
T:Sören Unge
C:Sören Unge
%%score { ( 1 3 ) | ( 2 4 ) } { ( 5 7 ) | 6 } { ( 8 11 ) | ( 9 10 ) } { 12 | ( 13 14 ) }
L:1/8
Q:1/8=132
M:6/8
K:D
V:1 treble nm="Piano 1" snm="Pno.1"
V:3 treble 
V:2 treble 
V:4 treble 
V:5 treble nm="Piano 2" snm="Pno.2"
V:7 treble 
V:6 treble 
V:8 treble nm="Piano 3" snm="Pno.3"
V:11 treble 
V:9 bass 
V:10 bass 
V:12 treble nm="Piano 4" snm="Pno.4"
V:13 bass 
V:14 bass 
V:1
 z6 | z6 | z6 | z6 |!p!!<(! (A3 B3 | c3 d3!<)! | [G_e]6- | [Ge]6) |!p!!<(! (A3 B3 | c3 d2 e-!<)! | %10
!mp! e3!>(! [a=f']3-!>)! | [af']6) |!mp!!<(! (A3 B3 | c3 d3!<)! |"_l.h"!mf! x3 [_b_e']3- | %15
 [be']6) |!mp!!<(! a2- a/a/ b3 | c'3 d'>e'e'!<)! |!f! =f'3 f' d'2 | a2 d-!>(! d3- | d3 [A=f]3!>)! | %21
 z6 | =c3 =c'3- | c'6 |!p!!<(! (A3 B3 | c3 d3!<)! | _e6- | e6) |!<(! (a2- a/a/ b3 | %29
 c'2 d' e'2 =f'-!<)! |!f! f'3!>(! [a=f'] [=fd']2- | [fd']6)!>)! | (A6 |!>(! _B2 =c d3- | d3 _e3 | %35
 =f3- f ^f2- | f3 ^g3- | g3) z z2 | z6 | z6!>)! |!p! A3!<(! B3 | c3 d3 | _e3!<)!!>(! _e'3- | %43
 e'6!>)! |!mp! A3!<(! B3 | c3 d>e-e!<)! |!mf! =f6- | f6 | =f3- f ^f2 | g6 |!f!!<(!!8va(! d'3 e'3 | %51
 (2:3:2f'g' a'2 b'!<)! | =c''6- | c''2 =c''- c''3 | =c''3 b'3 |!>(! a'3- a' g'2- | g'3 f'3- | %57
 f'6!8va)!!>)! | z6 | z6 | z6 | z6 | z3!pp! !fermata![ad']3 |] %63
V:2
 z6 | z6 | z6 | z6 | z6 | z6 | z6 | z6 | z6 | z6 | z!ped! =f2- f3- | f4 z2!ped-up! | z6 | z6 | %14
!ped! z6 | z6!ped-up! | A2- A/A/ B3 | c3 d>ee |!ped! A3 a =f2 | d2 A- A3- | A3- A =F2 | %21
!<(! (2:3:2D!ped-up!!ped!E (2:3:2E=F | G3 =f3-!<)! | f6!ped-up! | F3 F3 | A3 F3 |!ped! _B6- | %27
 B6!ped-up! | F2- F/F/ F3 | c2 d e2!ped! =f- | f6 | z6!ped-up! | =F6 | z6 | z6 | z6 | z6 | %37
 ^G3- GGA | B3- B2 B- | B6 | F2- F/F/- F3 | A3 F3 | G6- | G6 |!ped! F2- F/F/- F3!ped-up! | %45
 F3 F2 =F | =F6- | F6 | A3- A2 G | G6 | d3 e3 | (2:3:2fg a2 b | =c'6- | c'2 =c'- c'3 | =c'3 b3 | %55
 a3- a g2- | g3 f3- | f6 | z6 | z6 | z6 | z6 | z3 !fermata!d3 |] %63
V:3
 x6 | x6 | x6 | x6 | x6 | x6 | x6 | x6 | x6 | x6 | x6 | x6 | x6 | x6 | (_e6- | e6) | x6 | x6 | x6 | %19
 x6 | x6 | x6 | x6 | x6 | x6 | x6 | x3 ([_b_e']3- | [be']6) | x6 | x6 | x6 | x6 | x6 | x6 | x6 | %35
 x6 | x6 | x6 | x6 | x6 | x6 | x6 | x6 | x6 | x6 | x6 | x6 | x6 | x6 | x6 |!8va(! x6 | x6 | x6 | %53
 x6 | x6 | x6 | x6 | x6!8va)! | x6 | x6 | x6 | x6 | x6 |] %63
V:4
 x6 | x6 | x6 | x6 | x6 | x6 | x6 | x6 | x6 | x6 | x6 | x6 | x6 | x6 | x6 | x6 | x6 | x6 | x6 | %19
 x6 | x6 | x6 | x6 | x6 | x6 | x6 | z3 g3- | g6 | x6 | x6 | x6 | x6 | x6 | x6 | x6 | x6 | x6 | x6 | %38
 x6 | x6 | x6 | x6 | x6 | x6 | x6 | x6 | x6 | x6 | x6 | x6 | x6 | x6 | x6 | x6 | x6 | x6 | x6 | %57
 x6 | x6 | x6 | x6 | x6 | x6 |] %63
V:5
 z6 | z6 | z6 | z6 |!p!!<(! (F3 F3 | [FA]3 [FA]3!<)! | _B6) | (g2 g2 _e2 | a3)!p!!<(! (f3 | %9
 A3 A3!<)! |!mp!!<(! A2 d da=f- | f6)!<)! |!mp!!<(! (A3 F3 | A3 A3!<)! |!mf! [_B_e]6- | %15
 [Be]2) _B2 G2 |!mp!!<(! F2- F/F/ F3 | A3 A2- A/e/!<)! |!f! =f6 | [=fa]3!>(! (2:3:2ag | =f6!>)! | %21
!<(! (2:3:2DE (2:3:2E=F | G2 _A!<)! _B2!>(! B | =c_A-A- A3!>)! |!p! z6 | (F3 A3 | [G_e]6) | %27
 (_EG!>(! _B2 (E2)!>)! |!<(! D2- D/F/ A3 | A3 A2- A/=F/!<)! |!f! (2:3:2Ac (2:3:2de | %31
!>(! [A=f]2 [=Fd] A2 A!>)! | d3) (=f3 |!>(! d3 d =c2) | z3 (=c3- | c3 =c2 B | A2 ^G- G3- | %37
 G3- G^GA | A6- | A3 ^G3)!>)! | z6 |!<(! z6 | _B2 B-!<)!!>(! B3 | (2:3:2_B=c- (2:3:2cB!>)! | %44
!mp! A3!<(! z z2 | c3 d>e-e!<)! |!mf! [A=f]3- [Af]2 A- | A3 =F3- | F3 z CG | G3 G A2 | %50
!f!!<(! d2- d/e/- e3 | f3 ac'd'!<)! | _e'6- | e'2 _e'- e'3 | _e'3 d'3 |!>(! a3- a g2- | %56
 g3 f3-!>)! |!mf!!>(! f6- | f6 | e4 f2 | e2 A4 | G4 A2-!>)! |!pp! !fermata!A6 |] %63
V:6
 z6 | z6 | z6 | z6 |!ped! z3 D3!ped-up! |!ped! C6!ped-up! |!ped! _E6!ped-up! | %7
!ped! G2 G2 _E2!ped-up! | F3 D3 |!ped! F3 F3!ped-up! |!ped! =F2 D DAF-!ped-up! | F6 | F3 D3 | %13
!ped! F6!ped-up! |!ped! [_EG]6-!ped-up! | [EG]3 z z2 |!ped! D2- D/D/ D3!ped-up! | %17
!ped! F3 F2- F/G/!ped-up! |!ped! A2 A2 B2!ped-up! |!ped! [=FA]3 (2:3:2AG!ped-up! | =F6 | z6 | %22
 z =C2-!ped! CC_E-!ped-up! | E2!ped! _E =C G2!ped-up! | (F3!<(! D3 | C3 F3!<)! | %26
!ped! _E6)!ped-up! | z6 |!ped! z2 z/ D/ F3!ped-up! |!ped! F3 F2- F/C/!ped-up! | %30
!ped! D=F-D- [DF]3-!ped-up! |!ped! [DF]6!ped-up! | D3 A3 | D3 (D =C2) | =C3 (C D2) | %35
 =C3-!ped! C C2-!ped-up! | C(B,=C B,3-) | B,6- | B,6- | B,6 |!p! D2- D/D/ D3 |!ped! F3!ped-up! F3 | %42
!ped! _E2 E- E3!ped-up! | _E3 (2:3:2=C_B, | D2- D/D/ D3 | F3 F2 =F- | %46
!ped! (2:3:2FE!ped-up!!ped! D3 | D3- DDA,- | A,3 z!ped-up!!ped! z2 | z3!ped-up!!ped! E2 E | %50
 D2- D/E/- E3 | F3 Acd | _e6- | e2!ped-up!!ped! _e- e3 | _e3 d3 | A3- A G2- | G3!ped! F3-!ped-up! | %57
 F6- | F6- | F6- |!ped! F6!ped-up! | z6 | z6 |] %63
V:7
 x6 | x6 | x6 | x6 | x6 | x6 | x6 | x6 | x6 | x6 | x6 | x6 | x6 | x6 | x6 | x6 | x6 | x6 | x6 | %19
 x6 | x6 | x6 | x6 | x6 | x6 | x6 | x6 | x6 | x6 | x6 | x6 | x6 | x6 | x6 | x6 | x6 | x6 | x6 | %38
 x6 | x6 | x6 | x6 | x6 | x6 | x6 | x6 | x6 | x6 | x6 | x6 | x6 | x6 | x6 | x6 | x6 | x6 | x6 | %57
 _e'2 d'2 a2- | a2 b2 a2 | x6 | x6 | x6 | x6 |] %63
V:8
 z6 |!p! z2 z2 (F,A, | E6 | D4 F,A, | D6) | z!<(! z z2 (F,A, | _E6)!<)! | z3 G_B=f- | f2 d- d3 | %9
 z6 | z6 | z6 | z6 | z6 | z4!<(! (G_B!<)! | _e3 =f2 e | d3) z z2 | z6 | z6 | z6 | z6 | z6 | z6 | %23
 z6 |!p! z6 | z6 | z6 | z6 | z6 |!mf! z6 | z6 | z6 | z6 | z6 | z6 | z4 z (E |!<(! F3!<)!!>(! E3 | %37
 D6) | z6 | z6!>)! |!p! z6 | z4 z A | G2 _B2 d=c |!>(! _B2 G- G _E2 | D6!>)! |!mp!!<(! [B,D-]6 | %46
 [A,D]3!<)! A,3- | A,A,=C- C D2 | D3- DFE | _E2 D =E2 C- | C!f!D!<(!B,- B,CG | [CF]3- [CF]3 | %52
 z!<)! [G_e]2 [Ge] [_E_B]2- | [EB]_E!>(!G _B _e2- | [Ge]2 [F^d]2 [DA]2- | %55
 [DA]2 F!>)![I:staff +1] D,G,[I:staff -1]D | E E2- E D2- |!<(! DDF AGd-!<)! | (2:3:2d!>(!_e d3- | %59
 d2 c- cde- | e!>)! d2- d3 | DEG d2 e- |!>(! !fermata!e6!>)!!pp! |] %63
V:9
 z6 |!ped! z F,D, A,, z2!ped-up! | z6 | z F,D, A,, z2 | z6 | z!ped! F,D, A,, z2!ped-up! | z6 | %7
!ped! =C,G,=C z z2!ped-up! |!ped! [D,F,]6!ped-up! |!p!!ped! z ([D,B,]A, [F,C]A,A,-!ped-up! | %10
!ped! A,3- A,3-!ped-up! | A,)(A,D, D,A,,D,- | D,6) |!ped! z ([D,B,]A,, [F,C]A,A,!ped-up! | %14
!ped! _B,2 G,- G,3)!ped-up! | z6 | z6 |!ped! B,6-!ped-up! | B,6!ped! | %19
!ped! z A,=F, =CA,F,!ped-up! |!ped! z =F,A,!>(! _B,2 A,- | A,=F,A,- A,F,_E,-!ped-up! | %22
!ped! [_A,,E,]6!>)! | z2 (_A,,- A,,2 =A,, | A,,6)!ped-up! | z!ped! (A,F, D,F,A,,)!ped-up! | z6 | %27
!ped! (G,2 G, =C,2 A,,- | A,,3)!ped-up! z z2 |!ped!!<(! (B,A,D, F,A,A,)!ped-up! | %30
!ped! z (A,A, =F,A,F,)!ped-up! | z!ped! (A,A, =F,A,F,)!<)!!ped-up! | %32
!ped! z!>(! (=F, A,2 F,A,)!ped-up! | z!ped! (=F, _B,2 B,F,) | z!ped-up!!ped! (_E, _A,2 E,G,)!>)! | %35
 z!ped-up!!ped! (_E, G,2 G,=E,- | E,6)!ped-up! | z (B,^G,!ped! A,B,C | D6!ped-up! | %39
!ped! D3- DCB,!ped-up! | A,6) |!ped! CA,F, D,F,A,!ped-up! | G,2 _B,2 D=C- | %43
!ped! C _E2- E z2!ped-up! | z6 |!ped! F,2 F, D,F,A,!ped-up! |!ped! D, A,2!ped-up! z D,=C, | %47
!ped! _B,,6!ped-up! |!ped! A,,E,A, A,3!ped-up! |!ped! A,,A,G,!ped-up!!ped! A,,2 A,,!ped-up! | %50
!ped! A,,3 E,3 | z!ped-up!!ped! A,F, D,F,A,!ped-up! |!ped! =C,3- C,2 C,!ped-up! | %53
!ped! =C,3- C,2 A,,!ped-up! |!ped! D,3- D,2 D,!ped-up! |!ped! D,3 x x2!ped-up! |!ped! z6!ped-up! | %57
!ped! z6!ped-up! | z6 | z3 A,3 |!ped! A,3!ped! B,3-!ped-up! | B,6- | B,6 |] %63
V:10
 x6 | x6 | x6 | x6 | x6 | x6 | x6 | x6 | x6 | x6 | z =F,2- F,3- | F, z z4 | x6 | x6 | x6 | x6 | %16
 x6 | z A,F, D,F,A,- | A,2 =F, D,F,A, | =C,4 z2 | _B,,6 | x6 | x6 | x6 | x6 | x6 | x6 | x6 | x6 | %29
 x4 D,2 | x6 | x6 | x6 | x6 | x6 | x6 | x6 | x6 | x6 | x6 | x6 | x6 | x6 | x6 | x6 | x6 | x6 | x6 | %48
 x6 | x6 | x6 | x6 | x6 | x6 | x6 | x6 | x6 | x6 | x6 | x6 | x6 | x6 | x6 |] %63
V:11
 x6 | x6 | x6 | x6 | x6 | x6 | x6 | x6 | x6 | x6 | x6 | x6 | x6 | x6 | x6 | z!>(! _BG- G3!>)! | %16
 x6 | x6 | x6 | x6 | x6 | x6 | x6 | x6 | x6 | x6 | x6 | x6 | x6 | x6 | x6 | x6 | x6 | x6 | x6 | %35
 x6 | x6 | x6 | x6 | x6 | x6 | x6 | x6 | x6 | x6 | x6 | x6 | x6 | x6 | x6 | x6 | x6 | x6 | x6 | %54
 x6 | x6 | x6 | z3 D3 | G3 F2 E | D3 A3- | A6 | x6 | x6 |] %63
V:12
!p! z6 | z6 | z6 | z6 | z6 | z6 | z6 | z6 |!p!!<(! z6 | z6!<)! | z6 | z6 |!mp!!<(! z6 | z6!<)! | %14
!mf! z3 =C3- | C3 _B,3 |!mp!!<(! A,3 z z2 | z6!<)! | z6 | z6 | z6 | z6 | z6 | z6 |!p! z6 | z6 | %26
!<(! z6!<)! | _EG!>(! _B2 E2!>)! | z6 | z6 | z6 | z6 | z6 | z6 | z6 | z6 | z6 | z6 | z3 x x x | %39
 z6 |!p! z6 | z6 | z3!>(! =C_EG- | G6!>)! |!mp! z6 | z6 |!<(! z6 | z6 | z6 | z6!<)! | %50
!f!!<(! z3[K:bass] D,A,E,- | E,3 F,3 | z!<)! G,=C G,2 G, | z G,_B, G,3 | z F,A, F,3 | %55
!>(! z B,F, G,3 | z6 | z6 | z6 | z6!>)! | z4!<(! z[K:treble] D- | D2 E2!<)!!>(! F2-!>)! | %62
 !fermata!F6 |] %63
V:13
!ped! (D,,A,,D,- D,F,A,-!ped-up! | A,6) |!ped! (D,,A,,D,- D,F,A,-!ped-up! | A,6) | %4
!ped! (D,,A,,D,- D,F,A,-!ped-up! | A,6) |!ped! (=C,,G,,=C, G,[I:staff -1]_B,_E!ped-up! | %7
[I:staff +1] G,3 _B,3) |!ped! (D,,A,,D,- D,F,A,-!ped-up! | A,3- (2:3:2A,E, | %10
!mp!!ped! =F,/D,/A,/A,/D,- D,3!ped-up! | D,,6) |!ped! (D,,A,,D,- D,F,A,-!ped-up! | A,6) | %14
!ped! =C,G,_B, z z2!ped-up! | =C,,3 =C,2 A,, |!ped! D,,A,,D,- D,F,!ped-up!A, | [D,F,]6 | %18
!f!!ped! D,6!ped-up! |!ped! =C,3 C,3!ped-up! |!ped! _B,,3!>(! B,,3-!ped-up! | B,,=F,_B,,- B,,3 | %22
!ped! _A,,_E,_A, A,3-!ped-up!!>)! | A,3- A,2 A,,, |!ped! (D,,A,,D,- D,F,!ped-up!A,- | A,6) | %26
!ped! =C,,G,,=C, G,_B,G,!ped-up! | z6 |!ped! (D,,A,,D, D,F,[D,A,]-!ped-up! | [D,A,]6) | %30
!f! (D,3!ped! _B,,2 _B,,,!ped-up! | A,,,3!ped-up!!ped! D,,2 A,, | _B,,,3!ped-up!!ped! _B,,3- | %33
 B,,) (_B,,2!ped-up!!ped!!>(! _A,,2 A,,- | A,,3 _A,,2 _E,, |!ped! _A,,6)!ped-up! | %36
!ped! (E,,B,,E, E,^G,A,!ped-up! |!ped! [E,,B,]6)!ped-up! | %38
!ped! (A,,E,A,[I:staff -1] B,DB,!ped-up! |!ped![I:staff +1] A,B,,E,!>)! A,,,3)!ped-up! | %40
!ped! D,,A,,D, D,F,!<(![D,A,]-!ped-up! | [D,A,]6 |!ped! =C,G,!<)!=C z =C,,2!ped-up! | %43
 =C,,3- C,,2 A,,, |!ped! D,,6!ped-up! | D, D,,2- D,,3 | %46
!ped! D, D,,2!ped-up!!ped! D, =C,,2!ped-up! |!ped! _B,, _B,,,2 B,,,2 B,,!ped-up! | %48
!ped! A,, A,,,2 A,, A,,,2!ped-up! | A,,3 A,,,3 |!ped! x A,,D, x D,,A,,,!ped-up! | %51
!ped! D,,3- D,, D,,2!ped-up! |!ped! =C,,3- C,, C,,2!ped-up! |!ped! =C,,3- C,,C,,A,,,!ped-up! | %54
!ped! D,,3- D,,D,,A,,,!ped-up! |!ped! G,,,3- G,,,G,,,D,,!ped-up! |!ped! D,,A,,D,- D,F,A,-!ped-up! | %57
 A,6 |!ped! D,,A,,D,- D,F,A,!ped-up! | F,A,F, D,F,D, |!ped! D,,A,,F, E,A, z!ped-up! | z6 | %62
!ped! D,,6!ped-up! |] %63
V:14
 x6 | x6 | x6 | x6 | x6 | x6 | x6 | x2 (=C,,- C,,3) | x6 | x6 | x6 | x6 | x6 | x6 | x6 | x6 | x6 | %17
 x6 | z A,D A,2 A, | x6 | x6 | x6 | x6 | x6 | x6 | x6 | x6 | x6 | x6 | x6 | x6 | x6 | x6 | x6 | %34
 x6 | x6 | x6 | x6 | x6 | x6 | x6 | x6 | x6 | x6 | z A,,D, D,F,[D,A,] | x6 | x6 | x6 | x6 | x6 | %50
 D,,4- D,, x | x6 | x6 | x6 | x6 | x6 | x6 | x6 | x6 | x6 | x6 | x6 | x6 |] %63

